X:0169
T:Quick March 19th. Regt.
M:2/4
L:1/8
Q:1/4=84
P:ABA % Aird uses a da capo
I: :: || DC
Z:Jack Campin * www.campin.me.uk * 2009
K:G
P:A
Gg Bc|d>edG|FGAB         |c2 (d/c/)(B/A/)|
Gg Bc|d>edG|FG (A/c/B/)A/|G2  G2        :|
P:B
gd (c/B/)(A/G/)|(F/G/)(A/B/) Ac|Bd (c/B/)(A/G/)|d/(^c/d/e/)  d````(e/f/) |
gd (c/B/)(A/G/)|(F/G/)(A/B/) Ac|Bd (c/B/)(A/G/)|d````(d/e/) (d/c/)(B/A/)||

